!!!!SEGMENT: Jom2003-Veni_sancte_spiritus.krn
!!!id: Jom2003
!!!AGN: Motet
!!!SCT: Sherr (1989)
!!!voices: 4
!!!COM: Jachet of Mantua
!!!OTL: Veni sancte spiritus
**kern	**kern	**kern	**kern
*part4	*part3	*part2	*part1
*staff4	*staff3	*staff2	*staff1
*I"Bassus	*I"Tenor	*I"Altus	*I"Superius
*I'B	*I'T	*I'A	*I'S
*clefF4	*clefGv2	*clefGv2	*clefG2
*k[b-]	*k[b-]	*k[b-]	*k[b-]
*F:	*F:	*F:	*F:
*M2/1	*M2/1	*M2/1	*M2/1
*met(C|)	*met(C|)	*met(C|)	*met(C|)
!!section: Prima pars: Veni sancte spiritus
!!!OMD: Prima pars: Veni sancte spiritus
=1	=1	=1	=1
0r	0r	0r	0f
=2	=2	=2	=2
0r	0F	0r	1f
.	.	.	[1cc
=3	=3	=3	=3
1r	1F	0r	1cc]
[1C	[1c	.	1cc
=4	=4	=4	=4
1C]	1c]	0c	2r
.	.	.	1cc
1C	1c	.	.
.	.	.	2cc
=5	=5	=5	=5
0F	2r	1c	1a
.	1c	.	.
.	.	[1f	1f
.	2c	.	.
=6	=6	=6	=6
1F	1A	1f]	0r
2r	[1F	1f	.
[2c	.	.	.
=7	=7	=7	=7
2c]	0F]	2r	1r
2c	.	1c	.
1A	.	.	2r
.	.	2c	[2cc
=8	=8	=8	=8
1F	2r	1A	2cc]
.	1c	.	2cc
2r	.	1F	1a
[2F	2c	.	.
=9	=9	=9	=9
2F]	1A	2r	1f
2F	.	1f	.
1D	1F	.	2f
.	.	2f	[2b-y
=10	=10	=10	=10
1BB-y	1G	2d	4b-]
.	.	.	4a
.	.	2d	4g
.	.	.	4f
2C	1G	2c	1e
2C	.	2c	.
=11	=11	=11	=11
1F	0F	1c	[0f
1r	.	2r	.
.	.	2c	.
=12	=12	=12	=12
1r	1r	2d	1f]
.	.	2d	.
2r	2r	2c	1r
2F	2A	[2f	.
=13	=13	=13	=13
2G	2B-y	2f]	1r
2G	2B-y	2e	.
1F	2A	[1f	2r
.	2c	.	2a
=14	=14	=14	=14
1B-y	2d	1f]	2b-y
.	2d	.	2b-y
2r	1c	2r	2a
2F	.	2a	2cc
=15	=15	=15	=15
2BB-y	1f	2b-y	2dd
2BB-y	.	2b-y	2dd
1F	2r	2a	2cc
.	2c	2f	2a
=16	=16	=16	=16
1E-X	2.e-X	2g	2b-y
.	.	2g	2b-y
.	4d	.	.
1F	2c	2f	2a
.	2A	2c	2f
=17	=17	=17	=17
1E-i	2B-y	2.e-X	1g
.	2B-y	.	.
.	.	4d	.
2F	[1A	4c	2.a
.	.	4B-y	.
2C	.	[2c	.
.	.	.	4g
=18	=18	=18	=18
1D	2A]	2c]	4f
.	.	.	4e
.	2F	2Bni	1f
1C	2G	[1c	.
.	2G	.	2e
=19	=19	=19	=19
1F	1F	2c]	1a
.	.	2F	.
2r	1r	[1c	1g
2C	.	.	.
=20	=20	=20	=20
1.F	2r	2c]	0r
.	2F	1A	.
.	[1c	.	.
4E	.	4G	.
4D	.	4F	.
=21	=21	=21	=21
4E	2c]	1G	0r
4C	.	.	.
4E	4B-y	.	.
4F	4A	.	.
1G	4B-y	1r	.
.	4G	.	.
.	4B-y	.	.
.	4c	.	.
=22	=22	=22	=22
2F	2d	2r	1r
2E	1c	2c	.
1D	.	[1f	2r
.	2B-y	.	2f
=23	=23	=23	=23
0C	1A	2f]	1.cc
.	.	4e	.
.	.	4d	.
.	[1G	4e	.
.	.	4c	.
.	.	4e	4b-y
.	.	4f	4a
=24	=24	=24	=24
0r	1G]	1g	4b-y
.	.	.	4g
.	.	.	4b-y
.	.	.	4cc
.	2r	2f	2dd
.	2c	2e	[2cc
=25	=25	=25	=25
1r	1.f	1d	2cc]
.	.	.	2b-y
2r	.	1c	1a
2F	4e	.	.
.	4d	.	.
=26	=26	=26	=26
1.c	4e	0r	1g
.	4c	.	.
.	4e	.	.
.	4f	.	.
.	[1g	.	1r
4B-y	.	.	.
4A	.	.	.
=27	=27	=27	=27
4B-y	1g]	1r	0r
4G	.	.	.
4B-y	.	.	.
4c	.	.	.
2d	2f	2r	.
[2c	2e	2c	.
=28	=28	=28	=28
2c]	1d	1.f	2r
2B-y	.	.	2f
[1A	1c	.	[1cc
.	.	4e	.
.	.	4d	.
=29	=29	=29	=29
1A]	2r	4e	2cc]
.	.	4c	.
.	2c	4e	4b-y
.	.	4f	4a
1G	2.d	[1g	4b-y
.	.	.	4g
.	.	.	4b-y
.	4c	.	4cc
=30	=30	=30	=30
1r	2B-y	2g]	2dd
.	2A	2c	1cc
2r	1G	2.d	.
2G	.	.	2b-y
.	.	4e	.
=31	=31	=31	=31
2.A	2.F	2.f	1a
4G	4G	4e	.
2F	4A	2d	2.a
.	4B-y	.	.
2E	[2c	2c	.
.	.	.	4g
=32	=32	=32	=32
1D	2c]	1d	1f
.	2Bni	.	.
2.C	1c	1G	1e
4D	.	.	.
=33	=33	=33	=33
4E	1G	2r	1r
4F	.	.	.
1G	.	2g	.
.	1r	2.a	2r
2F	.	.	2cc
.	.	4g	.
=34	=34	=34	=34
2B-y	0r	2.f	2.dd
4BB-y	.	.	.
4C	.	4e	4cc
4D	.	2d	2b-y
4E	.	.	.
[2F	.	[2c	2a
=35	=35	=35	=35
2F]	2r	4c]	1g
.	.	4B-y	.
2E	2c	2G	.
1D	2.d	2A	2f
.	.	2F	2a
.	4c	.	.
=36	=36	=36	=36
2E	2B-y	2G	2g
2F	2A	2.c	1f
1C	1G	.	.
.	.	4B-y	.
.	.	2c	2e
=37	=37	=37	=37
1D	1F	2A	1f
.	.	1d	.
2BB-y	2r	.	1r
2C	2c	[2c	.
=38	=38	=38	=38
1D	1f	2c]	1r
.	.	2Bni	.
[1C	2e	2.c	2r
.	[2c	.	2g
.	.	8B-yL	.
.	.	8AJ	.
=39	=39	=39	=39
1C]	4c]	0G	1cc
.	4d	.	.
.	4e	.	.
.	4c	.	.
1r	1d	.	2b-y
.	.	.	[2g
=40	=40	=40	=40
0r	1e	1r	4g]
.	.	.	4a
.	.	.	4b-y
.	.	.	4g
.	2f	2r	2a
.	2e	2c	[2cc
=41	=41	=41	=41
1G	1d	1g	2cc]
.	.	.	2bni
1c	1r	1c	1cc
=42	=42	=42	=42
2B-y	1d	0r	1r
2.G	.	.	.
.	1g	.	2r
4A	.	.	.
4B-y	.	.	2g
4G	.	.	.
=43	=43	=43	=43
1A	2e	2r	1cc
.	4d	2c	.
.	4c	.	.
1B-y	1d	1f	1b-y
=44	=44	=44	=44
1c	2c	2e	0r
.	2F	2.c	.
1A	1c	.	.
.	.	4d	.
.	.	4e	.
.	.	4c	.
=45	=45	=45	=45
0G	2B-y	1d	2r
.	2G	.	2.g
.	1B-y	1e	.
.	.	.	4a
.	.	.	4b-y
.	.	.	4g
=46	=46	=46	=46
2F	1c	2f	1a
2A	.	2c	.
1G	2d	[1g	1b-y
.	[2G	.	.
=47	=47	=47	=47
2C	2G]	1g]	1cc
2E	1c	.	.
[1D	.	2f	[1dd
.	4B-y	[2d	.
.	4A	.	.
=48	=48	=48	=48
1D]	1B-y	4d]	1dd]
.	.	4e	.
.	.	4f	.
.	.	4d	.
2C	2c	1e	4g
.	.	.	4a
2G	2B-y	.	4b-y
.	.	.	4g
=49	=49	=49	=49
2F	1c	1f	2a
2A	.	.	1cc
[1G	[1d	[1g	.
.	.	.	4b-y
.	.	.	4a
=50	=50	=50	=50
1G]	0d]	1g]	1.b-y
1D	.	[1f	.
.	.	.	2a
=51	=51	=51	=51
1F	1.c	1f]	1.a
[1G	.	[1d	.
.	4B-y	.	4g
.	4A	.	4f
=52	=52	=52	=52
1G]	1B-y	1d]	1.g
1C	1c	1e	.
.	.	.	[2cc
=53	=53	=53	=53
1F	1A	1f	4cc]
.	.	.	4b-y
.	.	.	1a
[1G	[1B-y	1d	.
.	.	.	4g
.	.	.	4f
=54	=54	=54	=54
1G]	1B-]	2r	1g
.	.	2B-y	.
1D	[1A	1f	[1a
=55	=55	=55	=55
2C	2A]	2e	1a]
1D	4G	2f	.
.	4F	.	.
.	1B-y	1d	1f
4C	.	.	.
4BB-y	.	.	.
=56	=56	=56	=56
0F	0A	2c	2r
.	.	2.f	2f
.	.	.	1cc
.	.	4e	.
.	.	4d	.
.	.	4c	.
=57	=57	=57	=57
1r	0r	2d	2b-y
.	.	2c	2cc
2r	.	1f	1a
2F	.	.	.
=58	=58	=58	=58
1c	0r	2.e	0g
.	.	8dL	.
.	.	8cJ	.
2B-y	.	2d	.
2c	.	[2e	.
=59	=59	=59	=59
1A	2r	4e]	1r
.	.	4d	.
.	2c	4c	.
.	.	4B-y	.
1F	1f	2c	2r
.	.	2A	2f
=60	=60	=60	=60
1r	2e	2r	1cc
.	2f	2F	.
2r	1d	1B-y	1b-y
2BB-y	.	.	.
=61	=61	=61	=61
1F	0c	2.A	1.cc
.	.	8GL	.
.	.	8FJ	.
2E	.	2G	.
2F	.	2A	[2a
=62	=62	=62	=62
1D	2r	2F	2a]
.	2F	2A	2.f
1BB-y	1B-y	2B-y	.
.	.	.	4e
.	.	2d	4f
.	.	.	4g
=63	=63	=63	=63
2r	2A	4c	2a
.	.	4A	.
2BB-y	2B-y	2d	4g
.	.	.	4f
2C	2G	1c	2e
[2F	2F	.	[2a
=64	=64	=64	=64
2F]	1c	2f	2a]
2C	.	2e	2.g
2D	2A	2f	.
.	.	.	4f
2BB-y	2B-y	2d	[2f
=65	=65	=65	=65
1C	1G	0c	2f]
.	.	.	2e
1F	[1F	.	[1f
=66	=66	=66	=66
0r	1F]	2r	0f]
.	.	2c	.
.	1r	2d	.
.	.	2d	.
=67	=67	=67	=67
2r	2r	2c	0r
2F	2A	1f	.
2G	2B-y	.	.
2G	2B-y	2e	.
=68	=68	=68	=68
1F	2A	0f	2r
.	2c	.	2a
1B-y	2d	.	2b-y
.	2d	.	2b-y
=69	=69	=69	=69
2r	1c	2r	2a
2F	.	2a	2cc
2BB-y	1f	2b-y	2dd
2BB-y	.	2b-y	2dd
=70	=70	=70	=70
1F	2r	2a	2cc
.	2c	2f	2a
1E-X	2.e-X	2g	2b-y
.	.	2g	2b-y
.	4d	.	.
=71	=71	=71	=71
1F	2c	2f	2a
.	2A	2c	2f
1E-X	2B-y	2.e-X	1g
.	2B-y	.	.
.	.	4d	.
=72	=72	=72	=72
2F	1.A	4c	2.a
.	.	4B-y	.
2C	.	1c	.
.	.	.	4g
1D	.	.	4f
.	.	.	4e
.	2F	2Bni	[2f
=73	=73	=73	=73
1C	2G	1c	2f]
.	2G	.	2e
1F	2F	2r	[1fl
.	2c	2A	.
=74	=74	=74	=74
1r	2d	2B-y	0f_
.	2d	2B-y	.
1F	2c	2A	.
.	2A	2c	.
=75	=75	=75	=75
2BB-y	2B-y	2d	0f_
2BB-y	2B-y	2d	.
*^	*	*	*
[1FFl\	[1Fl/	[1Al	[1cl	.
=76	=76	=76	=76	=76
00FF]	00F]	00A]	00c]	00f]
*v	*v	*	*	*
==	==	==	==
*-	*-	*-	*-
!!!system-decoration: [*]
!!!RDF**kern: i = editorial accidental
!!!RDF**kern: l = terminal long
!!!ENC: Benjamin Ory
!!!END: 2021/1/18
!!!EED: Benjamin Ory
!!!EEV: 2021/05/17
!!!YEC: Copyright 2021 Benjamin Ory, All Rights Reserved
!!!ONB: Translated from MusicXML on 2021/05/17
